X:295
M:4/4
L:1/4
K:F
A2 A A | B2 (A c) | c2 B2 | A4 | B2 B B | A3 A | =B2 B2 | c4 | c2 c B | A2 F2 | (E F) (G A) | B4 | !sintro!A2 d d | c2 A2 | F2 G2 | F4 !eintro!|]
